X: 9800
T: Denis Murphy's
R: polka
M: 2/4
K: Dmajor
f/g/f/e d>B|AD FA|GE e>f|ed BA|
f/g/f/e d>B|AD FA|GEe>f|ed d2:|
|:Af f/e/f|Bg g/f/g|Af f/e/f|e/f/e/d/ BA|
Af f/e/f|Bg ga|ba gc|ed d2:|

